X: 597
%
U:~=!turn!
T: Sud mar chuir mi'n geamhradh tharum
T: That's How I Spent the Winter
C:Skye tune
C:from Patrick Macdonalds Collection
O:Scotland
B:Keith Norman MacDonald : "The Skye collection of the best reels & strathspeys extant" : 1887
Z:Ralph Palmer
R:Strathspey
M:C
L:1/8
K:D
Tf>A A>A (A>F) A>A | f>a A>f e>d B<d | f>A A>A B>AF>A | a>ef>d Te>d B<d :| f<a {/a}b>a a<ge>d | d<d e<e g>eTf>e |
g<a b>a a<fe>d | (g>e)(f>d) TB>A B<d | a>a {/a}b>f a>ef>d | e>fg>e a>gTf>e | b>fa>e {/e}f>def | g3/2f/4e/4 a>d B>A B<a |]


